X: 43194
T: Wishing Tree, The
R: reel
M: 4/4
K: Dmajor
z4z2 {c}dB|:A2FA EFDE|FBBA~B3c|dfed BAFE|DEED EcdB|
A2FA EFDE|FBBA B3c|dfed BAFD|EDFE D2d2-|dBAF|
EFDE|FBBA ~B3c|dfed BAFE|DEEE EDB,D|A,3B, DEFA|
BFFF Adcd|.B2dB AFDF|EDFE DEFA|B4B3A|BcdB AFEF|
AFEF D3E|FEED Fdcd|B3AB3A|BcdB AFEF|AFFF AFBF|
AFEF Ddcd|B3AB3B|BcdB AFEF|GB,B,A, B,3 D|.c,2A,c, EGFE|
F2DF Adcd|BGGF GBdB|(3ABA ^GA dBAF|EDFEDcdB:|

